X: 7859
T:the Spey in Spate
R:Reel
O:Scotland
M:4/4
C:J. Scott Skinner
K:D
{A,B,C}D2FD A,DFA|dcBA ^GAFD|\
E2GE B,EGB|gecA GECA,|\
{C}D2FD A,DFA|cCBC ACGe|fdec dBcA|GEFD CGAB||\
c/c/cec AdFA|DFAd fagf|e/e/ege BeGB|CEAc egfe|\
d/d/dfd AdFA|DFAd fagf|gefd ecdB|AFGE D4|]
